X: 5154
T: Bright Hollow Fog, The
R: strathspey
M: 4/4
K: Gmajor
E2 F2|:"G" G3 F G2 A2|B4 g3 f|"C" e4 d2 B2|"D" A4 G3 A|
"Em" B3 A B3 G|"C" E2 (3EFG "D" F3 G|"G" G4- G3 G|G3 E E2 F2|
"G" G3 F G2 A2|B4 g3 f|"C" e4 d2 B2|"D" A4 G3 A|
"Em" B3 A B3 G|"C" E2 (3EFG "D" F3 G|"G" G4- G3 G|G3 B B2 d2|
"Em" g4 f3 g|e4 f3 g|"Bm" f3 e f3 d|B3 B B2 d2|
"Am" e3 e e3 f|g2 (3gfe "D" f3 d|"Am" e4- e4-|e3 E E2 F2|
"G" G3 F G2 A2|B4 g3 f|"C" e4 d2 B2|"D" A4 B2 c2|
"Em" B3 A B3 G|"C" E2 (3EFG "D" F3 G|"G" G4- G4-|1 G3 z E2 F2:|2 G4- G4||

